layouts/icon-pack/spell_astral.svg

<?xml version="1.0" encoding="UTF-8"?>
<svg width="1200pt" height="1200pt" version="1.1" viewBox="0 0 1200 1200" xmlns="http://www.w3.org/2000/svg">
 <g fill="#fff">
  <path d="m123.98 550.9c82.898 25.312 195.23 64.992 211.2 98.438 19.102 39.844 31.758 208.78 54.234 332.3 5.6016 30.727 49.594 30.727 55.172 0 22.477-123.52 35.156-292.36 54.234-332.3 15.961-33.352 128.3-73.031 211.22-98.438 25.195-7.6875 25.195-43.383 0-51.07-82.922-25.312-195.26-64.969-211.22-98.438-19.102-39.844-31.758-208.78-54.234-332.3-5.5781-30.727-49.57-30.727-55.172 0-22.477 123.52-35.156 292.36-54.234 332.3-15.961 33.375-128.3 73.031-211.2 98.438-25.195 7.6875-25.195 43.383 0 51.07z"/>
  <path d="m1082.1 811.78c-56.25-17.133-132.33-44.039-143.13-66.656-12.938-27.047-21.516-141.47-36.75-225.19-3.7969-20.812-33.609-20.812-37.5 0-15.211 83.719-23.789 198.14-36.727 225.19-10.828 22.617-86.953 49.523-143.16 66.656-4.9805 1.5156-9.0664 5.1055-11.211 9.8477-2.1484 4.7422-2.1484 10.18 0 14.922 2.1445 4.7422 6.2305 8.332 11.211 9.8477 56.25 17.133 132.33 44.039 143.16 66.656 12.938 27.047 21.516 141.47 36.727 225.19 3.7969 20.812 33.609 20.812 37.5 0 15.234-83.719 23.812-198.14 36.75-225.19 10.805-22.617 86.953-49.523 143.13-66.656 4.9805-1.5156 9.0664-5.1055 11.211-9.8477 2.1484-4.7422 2.1484-10.18 0-14.922-2.1445-4.7422-6.2305-8.332-11.211-9.8477z"/>
 </g>
</svg>

<?xml version="1.0" encoding="UTF-8" standalone="no"?>
<!DOCTYPE svg PUBLIC "-//W3C//DTD SVG 1.1//EN" "http://www.w3.org/Graphics/SVG/1.1/DTD/svg11.dtd">
<svg width="100%" height="100%" viewBox="0 0 458 512" version="1.1" xmlns="http://www.w3.org/2000/svg" xmlns:xlink="http://www.w3.org/1999/xlink" xml:space="preserve" xmlns:serif="http://www.serif.com/" style="fill-rule:evenodd;clip-rule:evenodd;stroke-linejoin:round;stroke-miterlimit:2;">
    <g transform="matrix(1,0,0,1,-105.084,-46.0468)">
        <g transform="matrix(0.462175,0,0,0.462175,56.5167,24.7651)">
            <path d="M123.98,550.9C206.878,576.212 319.21,615.892 335.18,649.338C354.282,689.182 366.938,858.118 389.414,981.638C395.016,1012.37 439.008,1012.37 444.586,981.638C467.063,858.118 479.742,689.278 498.82,649.338C514.781,615.986 627.12,576.307 710.04,550.9C735.235,543.213 735.235,507.517 710.04,499.83C627.118,474.518 514.78,434.861 498.82,401.392C479.718,361.548 467.062,192.612 444.586,69.092C439.008,38.365 395.016,38.365 389.414,69.092C366.937,192.612 354.258,361.452 335.18,401.392C319.219,434.767 206.88,474.423 123.98,499.83C98.785,507.518 98.785,543.213 123.98,550.9Z" style="fill:white;fill-rule:nonzero;"/>
            <path d="M1082.1,811.78C1025.85,794.647 949.77,767.741 938.97,745.124C926.032,718.077 917.454,603.654 902.22,519.934C898.423,499.122 868.611,499.122 864.72,519.934C849.509,603.653 840.931,718.074 827.993,745.124C817.165,767.741 741.04,794.647 684.833,811.78C679.853,813.296 675.767,816.886 673.622,821.628C671.474,826.37 671.474,831.808 673.622,836.55C675.766,841.292 679.853,844.882 684.833,846.397C741.083,863.53 817.163,890.436 827.993,913.053C840.931,940.1 849.509,1054.52 864.72,1138.24C868.517,1159.06 898.329,1159.06 902.22,1138.24C917.454,1054.52 926.032,940.103 938.97,913.053C949.775,890.436 1025.92,863.53 1082.1,846.397C1087.08,844.882 1091.17,841.292 1093.31,836.55C1095.46,831.808 1095.46,826.37 1093.31,821.628C1091.17,816.886 1087.08,813.296 1082.1,811.78Z" style="fill:white;fill-rule:nonzero;"/>
        </g>
    </g>
</svg>
